X:1
T:O Perfect Love
T:Text: Dorothy F. Gurney (1858-1932), alt. Tune: Joseph Barnby (1838-1896)
T:11 10 11 10 O PERFECT LOVE www.hymnary.org/text/o_perfect_love_all_human_thought_transc
T:O Perfect Love
T:This hymn is in the public domain.  You may freely use this score for personal and congregational worship.  If you reproduce the score, please credit Hymnary.org as the source. 
T:This hymn is in the public domain.  You may freely use this score for personal and congregational worship.  If you reproduce the score, please credit Hymnary.org as the source. 
Z:This hymn is in the public domain.  You may freely use this score for personal and congregational worship.  If you reproduce the score, please credit Hymnary.org as the source.
%%score ( 1 2 ) ( 3 4 )
L:1/8
M:4/4
K:D
V:1 treble nm="Piano" snm="Pno."
V:2 treble 
V:3 bass nm="Piano" snm="Pno."
V:4 bass 
V:1
 [A,D]4 [DF]2 [DA]2 | [CA]4 [CA]4 | [DA]2 [DA]2 [Dd]2 [Dc]2 | [Dc]4 [DB]4 | [B,E]4 [CF]2 [CG]2 | %5
w: 3~Grant them the|joy which|brigh- tens earth- ly|sor- row;|grant them the|
w: 1~O per- fect|Love, all|hu- man thought trans-|cen- ding,|low- ly we|
w: 2~O per- fect|Life, be|now their full as-|su- rance|of ten- der|
 [DA]4 [CF]4 | [B,D]2 [B,D]2 [B,F]2 [B,E]2 | [A,C]8 | [A,D]4 [DF]2 [DA]2 | [CA]4 [CA]4 | %10
w: peace which|calms all earth- ly|strife,|and to life's|day the|
w: kneel in|prayer be- fore your|throne,|that theirs may|be the|
w: cha- ri-|ty and stead- fast|faith,|of pa- tient|hope and|
 [DA]2 [DA]2 [Fd]2 [Ec]2 | [Ec]4 [DB]4 | [GB]4 [FA]2 [EG]2 | [DF]2 [^DA]2 [EG]2 [B,E]2 | %14
w: glo- rious un- known|mor- row|that dawns up-|on e- ter- nal|
w: love which knows no|en- ding,|whom you for-|e- ver- more u-|
w: qui- et, brave en-|du- rance,|with child- like|trust that fears no|
 B,4 [A,C]4 | [A,D]8 |] %16
w: love and|life.|
w: nite in|one.|
w: pain or|death.|
V:2
 x8 | x8 | x8 | x8 | x8 | x8 | x8 | x8 | x8 | x8 | x8 | x8 | x8 | x8 | B,4 x4 | x8 |] %16
V:3
 [D,F,]4 [D,A,]2 [F,A,]2 | [E,G,]4 [E,G,]4 | [F,A,]2 [D,F,]2 [E,G,]2 [F,A,]2 | G,4 G,4 | %4
 [G,B,]4 A,2 A,2 | [F,A,]4 [F,^A,]4 | [B,,B,]2 [B,,F,]2 [E,,A,]2 [E,,G,]2 | [A,,E,]8 | %8
 [D,F,]4 [D,A,]2 [F,A,]2 | G,4 A,4 | [F,A,]2 [F,A,]2 [F,^A,]2 [F,A,]2 | ^A,4 [G,B,]4 | %12
 [G,,B,]4 [A,,C]2 [A,,C]2 | [B,,D]2 [F,,=C]2 [G,,B,]2 [G,,G,]2 | [A,,G,]4 [A,,G,]4 | [D,F,]8 |] %16
V:4
 x8 | x8 | x8 | G,4 G,4 | x4 G,2 G,2 | x8 | x8 | x8 | x8 | E,6 G,2 | x8 | G,4 x4 | x8 | x8 | x8 | %15
 x8 |] %16

